X:1165
M:2/4
L:1/16
Q:1/4=88
K:G
g4   dedc|B2B2 B4|d4   BcBA|G2G2 G4|AGAB c2c2|BABc d2d2|e2d2 c2B2|A4   A4:|

